X:1
T:Title
%%score ( 1 2 ) { 3 | 4 } ( 5 6 ) ( 7 8 )
L:1/8
Q:1/4=63
M:6/8
K:Bb
V:1 treble nm="Grand Piano, Soprano"
V:2 treble 
V:3 bass nm="Choir Pad, Caroling, Caroling"
V:4 bass 
V:5 treble nm="Strings 1, Staff-1"
V:6 treble 
V:7 bass nm="Strings 2, Staff-2"
V:8 bass 
V:1
 [Dd]>[Dc][DB] [EF]>[EG][EF] | [Dd]>[Dc][DB] [EF]3 | F>[FG][FA] [FB]>[Fc][^Fd] | [Gc]6 | %4
 [Ee]>[Ed][Ec] [FG]>[F_A]G | [Ee]>[Ed][Ec] [FG]3 | [Gc][Gc][FB] [EA][EA][EG] | [EF]6 | %8
 [DF]2 [FB] AB[Ec] | [DB]3 F3 | FG[FA] [FB]>[Fc][=Ed] | [Fc]6 | [Fd]2 [Fc] =Bd[Ff] | e2 d [Gc]3 | %14
 [Gd]2 [GB] [Gd]2 [GB] | d3- [=Fd]3 | [Ee][Fd][Gc] FB[EA] | [DB]6 |] %18
V:2
 x6 | x6 | x6 | x6 | x6 | x6 | x6 | x6 | z3 .E3 | x6 | x6 | x6 | z3 .F3 | G3 z3 | x6 | ^F3 z3 | %16
 x6 | x6 |] %18
V:3
 B,>B,B, C>CC | B,>B,B, A,3 | B,>B,F, B,>B,B, | G,6 | C>CC D>DD | C>CC =B,3 | CC[K:bass]F, A,A,B, | %7
 C6 | B,2 B, CB,A, | B,3[K:treble] C3 | D2 C B,>B,[K:bass]B, | A,6 | B,2 C D2 =B, | C2 =B, C3 | %14
 B,2 D[K:bass] B,2 D | A,3 =B,3 | C[K:treble]=B,C D2 C | B,6 |] %18
V:4
 B,,>B,,B,, A,,>A,,A,, | B,,>B,,B,, C,3 | D,>D,D, D,>D,D, | E,6 | C,>C,C, =B,,>B,,B,, | %5
w: By~Caleb~Simper~(1856\-1942) * * * * *|||||
 C,>C,C, D,3 | E,E,D, C,C,B,, | A,,6 | B,,2 D, F,2 F, | G,3 A,3 | B,2 A, G,>G,C, | F,6 | %12
w: |||||||
 z2 _A, G,2 G, | C,2 D, E,3 | D,2 D, D,2 D, | D,3 G,3 | C,D,E, F,2 F, | B,,6 |] %18
w: ||||||
V:5
 d>cB F>GF | d>cB [EF]3 | F>GA B>c[^Fd] | [Gc]6 | e>dc G>_AG | e>dc [FG]3 | [Gc]2 [FB] A2 G | F6 | %8
 z6 | z6 | z6 | z6 | z6 | z6 | z6 | z6 | z6 | z6 |] %18
V:6
 D3 E3 | D3 z3 | x6 | x6 | E3 F3 | E3 z3 | z3 E3- | E6 | x6 | x6 | x6 | x6 | x6 | x6 | x6 | x6 | %16
 x6 | x6 |] %18
V:7
 [B,,B,]3 [A,,C]3 | [B,,B,]3 [C,A,]3 | .B,3 z3 | [E,G,]6 | [C,C]3 [=B,,D]3 | [C,C]3 [D,=B,]3 | %6
 [E,C]2 [D,F,] [C,A,]2 [B,,B,] | [A,,C]6 | z6 | z6 | z6 | z6 | z6 | z6 | z6 | z6 | z6 | z6 |] %18
V:8
 x6 | x6 | D,2- [D,-F,] [D,B,]3 | x6 | x6 | x6 | x6 | x6 | x6 | x6 | x6 | x6 | x6 | x6 | x6 | x6 | %16
 x6 | x6 |] %18

